icons/banking/icon_plan-expenses_xxl_black.svg

<svg width="48" height="48" viewBox="0 0 48 48" xmlns="http://www.w3.org/2000/svg">
  <g fill="none" fill-rule="evenodd">
    <path d="M0 0h48v48H0z"/>
    <path d="M33 32l7-12.1c2.1 1.2 3.9 3 5.1 5.1 1.2 2.1 1.9 4.5 1.9 7H33zM9.6 2h-.2C8.6 2 8 2.6 8 3.4v4.1C8 8.4 8.6 9 9.4 9h.1c.9 0 1.5-.6 1.5-1.4V3.4c0-.8-.6-1.4-1.4-1.4zM25.6 2h-.1c-.9 0-1.5.6-1.5 1.4v4.1c0 .9.6 1.5 1.4 1.5h.1c.9 0 1.5-.6 1.5-1.4V3.4c0-.8-.6-1.4-1.4-1.4z" fill="#0B1F35" opacity=".3"/>
    <path d="M17 32H5.5C3.6 32 2 30.4 2 28.5v-20C2 6.6 3.6 5 5.5 5H8v1H5.5C4.1 6 3 7.1 3 8.5v20C3 29.9 4.1 31 5.5 31H17v1zM33 16h-1V8.5C32 7.1 30.9 6 29.5 6H27V5h2.5C31.4 5 33 6.6 33 8.5V16zM11 5h13v1H11zM33 46c-7.7 0-14-6.3-14-14s6.3-14 14-14v1c-7.2 0-13 5.8-13 13s5.8 13 13 13c6.1 0 11.5-4.4 12.7-10.4l1 .2C45.4 41.3 39.6 46 33 46z" fill="#0B1F35"/>
    <path d="M36.8 19.6c-1.2-.4-2.5-.6-3.8-.6v-1c1.4 0 2.8.2 4.1.6l-.3 1z" fill="#0B1F35"/>
  </g>
</svg>

<?xml version="1.0" encoding="UTF-8"?>
<svg width="48px" height="48px" viewBox="0 0 48 48" version="1.1" xmlns="http://www.w3.org/2000/svg" xmlns:xlink="http://www.w3.org/1999/xlink">
    <!-- Generator: Sketch 47.1 (45422) - http://www.bohemiancoding.com/sketch -->
    <title>icon_plans-by-category_xxl_black</title>
    <desc>Created with Sketch.</desc>
    <defs></defs>
    <g id="Symbols" stroke="none" stroke-width="1" fill="none" fill-rule="evenodd">
        <g id="icon_plans-by-category_xxl_black">
            <g id="ungroup">
                <g>
                    <rect id="Rectangle-path" x="0" y="0" width="48" height="48"></rect>
                    <path d="M33,32 L40,19.9 C42.1,21.1 43.9,22.9 45.1,25 C46.3,27.1 47,29.5 47,32 L33,32 L33,32 Z" id="Shape" fill="#0B1F35" opacity="0.3"></path>
                    <path d="M9.6,2 L9.4,2 C8.6,2 8,2.6 8,3.4 L8,7.5 C8,8.4 8.6,9 9.4,9 L9.5,9 C10.4,9 11,8.4 11,7.6 L11,3.4 C11,2.6 10.4,2 9.6,2 L9.6,2 Z" id="Shape" fill="#0B1F35" opacity="0.3"></path>
                    <path d="M25.6,2 L25.5,2 C24.6,2 24,2.6 24,3.4 L24,7.5 C24,8.4 24.6,9 25.4,9 L25.5,9 C26.4,9 27,8.4 27,7.6 L27,3.4 C27,2.6 26.4,2 25.6,2 L25.6,2 Z" id="Shape" fill="#0B1F35" opacity="0.3"></path>
                    <path d="M17,32 L5.5,32 C3.6,32 2,30.4 2,28.5 L2,8.5 C2,6.6 3.6,5 5.5,5 L8,5 L8,6 L5.5,6 C4.1,6 3,7.1 3,8.5 L3,28.5 C3,29.9 4.1,31 5.5,31 L17,31 L17,32 L17,32 Z" id="Shape" fill="#0B1F35"></path>
                    <path d="M33,16 L32,16 L32,8.5 C32,7.1 30.9,6 29.5,6 L27,6 L27,5 L29.5,5 C31.4,5 33,6.6 33,8.5 L33,16 L33,16 Z" id="Shape" fill="#0B1F35"></path>
                    <rect id="Rectangle-path" fill="#0B1F35" x="11" y="5" width="13" height="1"></rect>
                    <path d="M33,46 C25.3,46 19,39.7 19,32 C19,24.3 25.3,18 33,18 L33,19 C25.8,19 20,24.8 20,32 C20,39.2 25.8,45 33,45 C39.1,45 44.5,40.6 45.7,34.6 L46.7,34.8 C45.4,41.3 39.6,46 33,46 L33,46 Z" id="Shape" fill="#0B1F35"></path>
                    <path d="M36.8,19.6 C35.6,19.2 34.3,19 33,19 L33,18 C34.4,18 35.8,18.2 37.1,18.6 L36.8,19.6 L36.8,19.6 Z" id="Shape" fill="#0B1F35"></path>
                    <g id="Group" opacity="0.3"></g>
                </g>
            </g>
        </g>
    </g>
</svg>
